!!!COM:	Josquin des Pres?
**kern	**kern
*part2	*part1
*staff2	*staff1
*clefF4	*clefGv2
*k[]	*k[]
*M2/1	*M2/1
=1-	=1-
0G	0r
=2	=2
1A	0r
1A	.
=3	=3
1.G	0g
4F	.
4E	.
=4	=4
1F	1a
1F	1a
=5	=5
1.E	1.g
4D	4f
4C	4e
=6	=6
1D	1f
1D	1f
=7	=7
0C	1.e
.	4d
.	4c
=8	=8
1r	1d
1G	1d
=9	=9
1A	0c
[1c	.
=10	=10
2c]	1r
2B	.
1A	1c
=11	=11
2G	1d
2F	.
[1D	[1f
=12	=12
1D]	2f]
.	2e
1C	1e
=13	=13
1.G	1d
.	[1g
2A	.
=14	=14
1B	2g]
.	2f
1c	1e
=15	=15
2B	2d
2G	1e
1A	.
.	4d
.	4c
=16	=16
1G	2.B
.	4G
2F	2A
2G	[2G
=17	=17
2E	2G]
2C	2c
2.G	2B
.	[2e
4F	.
=18	=18
2G	4e]
.	4d
2E	1c
1D	.
.	2B
=19	=19
0C	[0c
=20	=20
0r	0c]
=21	=21
0c	1r
.	1c
=22	=22
1B	1d
1c	1e
=23	=23
1A	1c
1G	[1g
=24	=24
1c	2g]
.	2f
1c	1e
=25	=25
2.B	2.d
4A	4c
2B	2d
[2c	[2e
=26	=26
2c]	2e]
2B	4d
.	4e
1A	4f
.	4e
.	4d
.	4c
=27	=27
1G	0B
1r	.
=28	=28
1.G	1r
.	1g
2F	.
=29	=29
1E	1g
1D	1f
=30	=30
1C	2e
.	2c
2r	1d
[2F	.
=31	=31
2F]	1.c
2G	.
2A	.
2B	2B
=32	=32
1c	1A
2B	2G
[2A	[2c
=33	=33
2A]	2c]
1G	2B
.	1A
2F	.
=34	=34
1.G	2.G
.	4A
.	2.B
2E	.
.	4c
=35	=35
2F	2d
2G	2.e
1C	.
.	4f
.	[2g
=36	=36
1c	2g]
.	4f
.	4e
2B	2d
[2G	[2e
=37	=37
4G]	4e]
4F	4d
2E	1c
1D	.
.	2B
=38	=38
0C	0c
==	==
*-	*-
